src/img/star.svg

<svg height="28" width="29" xmlns="http://www.w3.org/2000/svg"><path d="m14.5-.001 4.779 8.8 9.719 1.895-6.766 7.334 1.228 9.97-8.96-4.267-8.961 4.267 1.228-9.97-6.765-7.334 9.719-1.895z" fill="#fdda4c" fill-rule="evenodd"/></svg>

<svg
 xmlns="http://www.w3.org/2000/svg"
 xmlns:xlink="http://www.w3.org/1999/xlink"
 width="29px" height="28px">
<path fill-rule="evenodd"  fill="rgb(253, 218, 76)"
 d="M14.500,-0.001 L19.279,8.799 L28.998,10.694 L22.232,18.028 L23.460,27.998 L14.500,23.731 L5.539,27.998 L6.767,18.028 L0.002,10.694 L9.721,8.799 L14.500,-0.001 "/>
</svg>
